X:9434
T:Le Sansonnet
R:Schottische
O:France
M:C
C:Dominique Forges
K:Dm
A2^GA=G2F2|EGFED2F2|1 DEFGA2^GA|c2=Bcd4:|2\
DEFGA2GF|EFGAF4::\
A2FA BGAB|A2FA BGAB|1 E3A BGAB| E3A BGAB:|2\
ABAG FGFE|DEFE D4:|


